X: 20051
M: 6/8
L: 1/8
K: D
V: 1 staves=3
d2d dcB | A2G F2A | d2d e2c | d3 z2A |\
d2e f2g | a2f d2e | f2f fed | e3 z2A |
d2e f2g | a2f d2e | f2f fed |["BIS." e3 Hf2e |\
d2d dcB | A3G F A | d2d e2c | d3 z2 |]
V: 2
[A2F2]c d2e | f2d A2c | d2d dcB | c3 z2A |
V: 3 clef=bass middle=d
z |\
d3 d3 | d3 d3 | d3 A3 | d3 z2z |\
d3 d3 | d3 d3 | d2d d2d | A3 z2z |
d3 d3 | d3 d3 | d2d dgb | a3 Hd2z |\
d2d dgb | a3 cd2 | d3 A3 | d3 z2 |]


